src/static/logos/tealium.svg

<?xml version="1.0" encoding="UTF-8"?>
<svg width="256px" height="405px" viewBox="0 0 256 405" version="1.1" xmlns="http://www.w3.org/2000/svg" xmlns:xlink="http://www.w3.org/1999/xlink" preserveAspectRatio="xMidYMid">
	<g>
		<path d="M255.961067,209.712903 C255.961067,184.942477 234.286945,164.300456 209.516519,165.332557 C184.746093,165.332557 165.136173,185.974579 165.136173,210.745004 C165.136173,235.51543 186.810295,256.157452 211.580721,255.125351 C237.383248,255.125351 256.993168,234.483329 255.961067,209.712903 L255.961067,209.712903 Z M119.723725,246.868542 C134.17314,238.611734 154.815162,246.868542 167.200375,267.510564 C179.585588,287.120484 178.553487,310.858809 164.104071,319.115618 C149.654656,327.372426 129.012635,319.115618 115.595321,298.473596 C104.242209,278.863676 105.27431,255.125351 119.723725,246.868542 L119.723725,246.868542 Z M76.3754798,297.441495 C88.7606927,292.28099 104.242209,303.634101 112.499018,323.244022 C120.755826,342.853942 117.659523,362.463863 105.27431,367.624368 C92.889097,372.784874 77.4075809,361.431762 69.1507722,341.821841 C60.8939636,322.211921 63.9902669,302.602 76.3754798,297.441495 L76.3754798,297.441495 Z M36.1235377,336.661336 C44.3803464,333.565033 56.7655593,345.950246 63.9902669,364.528065 C71.2149744,383.105885 69.1507722,400.651603 60.8939636,403.747906 C52.637155,406.844209 40.2519421,394.458996 33.0272345,375.881177 C26.834628,357.303358 27.8667291,339.757639 36.1235377,336.661336 L36.1235377,336.661336 Z M153.783061,92.05338 C169.264577,97.2138854 177.521385,118.888008 170.296678,141.594232 C164.104071,164.300456 145.526252,178.749871 129.012635,173.589366 C112.499018,168.42886 105.27431,146.754738 111.466916,124.048514 C119.723725,101.34229 138.301544,86.8928747 153.783061,92.05338 L153.783061,92.05338 Z M95.9854003,40.4483261 C108.370613,43.5446294 114.56322,62.1224488 109.402714,82.7644703 C104.242209,103.406492 89.7927938,116.823806 76.3754798,112.695402 C63.9902669,109.599099 57.7976604,89.9891779 63.9902669,70.3792574 C69.1507722,49.7372358 83.6001873,36.3199218 95.9854003,40.4483261 L95.9854003,40.4483261 Z M52.637155,0.196384074 C61.9260647,2.26058623 65.0223679,18.7742035 60.8939636,38.384124 C56.7655593,57.9940445 46.4445485,71.4113585 37.1556388,69.3471563 C28.8988302,68.3150552 24.7704259,50.7693369 28.8988302,32.1915175 C33.0272345,12.581597 43.3482453,-1.86781808 52.637155,0.196384074 L52.637155,0.196384074 Z" fill="#1D7DC0"></path>
		<path d="M113.531119,203.499006 C114.56322,223.108926 103.210108,239.622544 88.7606927,239.622544 C74.3112776,239.622544 62.9581658,224.141027 62.9581658,204.531107 C62.9581658,184.921186 74.3112776,168.407569 87.7285917,168.407569 C102.178007,168.407569 113.531119,183.889085 113.531119,203.499006 Z M30.9630323,262.328767 C27.8667291,244.783049 34.0593356,228.269432 44.3803464,226.20523 C55.7334582,224.141027 66.054469,237.558341 70.1828733,255.10406 C73.2791766,273.681879 67.0865701,289.163395 56.7655593,291.227598 C45.4124474,294.323901 34.0593356,280.906587 30.9630323,262.328767 Z M34.0593356,298.452305 L34.0593356,298.452305 C38.1877399,314.965922 36.1235377,329.415337 27.8667291,331.47954 C20.6420216,333.543742 10.3210108,322.19063 6.19260647,306.709114 C1.03210108,291.227598 4.12840431,275.746081 11.3531119,273.681879 C19.6099205,271.617677 28.8988302,281.938688 34.0593356,298.452305 Z M67.0865701,144.669244 L67.0865701,144.669244 C68.1186712,162.214963 59.8618625,176.664378 49.5408518,176.664378 C39.219841,176.664378 29.9309313,162.214963 29.9309313,144.669244 C28.8988302,127.123526 37.1556388,112.674111 47.4766496,112.674111 C57.7976604,112.674111 67.0865701,127.123526 67.0865701,144.669244 Z M29.9309313,97.1925944 C30.9630323,113.706212 23.7383248,126.091425 15.4815162,126.091425 C7.22470755,127.123526 0,113.706212 0,98.2246955 C0,82.7431793 6.19260647,69.3258653 14.4494151,69.3258653 C22.7062237,68.2937642 29.9309313,81.7110783 29.9309313,97.1925944 Z" fill="#969AA2"></path>
	</g>
</svg>

<svg width="256" height="405" xmlns="http://www.w3.org/2000/svg" preserveAspectRatio="xMidYMid"><path d="M255.961 209.713c0-24.77-21.674-45.413-46.444-44.38-24.77 0-44.38 20.642-44.38 45.412s21.673 45.412 46.444 44.38c25.802 0 45.412-20.642 44.38-45.412zm-136.237 37.156c14.45-8.257 35.091 0 47.476 20.642 12.386 19.61 11.353 43.348-3.096 51.605-14.45 8.256-35.091 0-48.509-20.642-11.353-19.61-10.32-43.349 4.129-51.605zM76.375 297.44c12.386-5.16 27.867 6.193 36.124 25.803 8.257 19.61 5.16 39.22-7.225 44.38-12.385 5.16-27.866-6.192-36.123-25.802-8.257-19.61-5.16-39.22 7.224-44.38zm-40.251 39.22c8.256-3.096 20.642 9.29 27.866 27.867 7.225 18.578 5.16 36.124-3.096 39.22-8.257 3.096-20.642-9.289-27.867-27.867-6.192-18.578-5.16-36.123 3.097-39.22zm117.66-244.608c15.48 5.16 23.737 26.835 16.513 49.541-6.193 22.706-24.77 37.156-41.284 31.995-16.514-5.16-23.739-26.834-17.546-49.54 8.257-22.707 26.835-37.156 42.316-31.996zm-57.8-51.604c12.386 3.097 18.578 21.674 13.418 42.316-5.16 20.642-19.61 34.06-33.028 29.931C63.99 109.6 57.798 89.99 63.99 70.38c5.16-20.642 19.61-34.06 31.995-29.93zM52.637.196c9.29 2.065 12.385 18.578 8.257 38.188-4.128 19.61-14.45 33.027-23.738 30.963-8.257-1.032-12.386-18.578-8.257-37.155 4.128-19.61 14.45-34.06 23.738-31.996z" fill="#1D7DC0"/><path d="M113.531 203.499c1.032 19.61-10.32 36.124-24.77 36.124S62.958 224.14 62.958 204.53s11.353-36.123 24.77-36.123c14.45 0 25.803 15.481 25.803 35.091zm-82.568 58.83c-3.096-17.546 3.096-34.06 13.417-36.124 11.353-2.064 21.674 11.353 25.803 28.9 3.096 18.577-3.096 34.058-13.417 36.123-11.354 3.096-22.707-10.321-25.803-28.9zm3.096 36.123c4.129 16.514 2.065 30.963-6.192 33.028-7.225 2.064-17.546-9.29-21.674-24.77-5.16-15.482-2.065-30.964 5.16-33.028 8.257-2.064 17.546 8.257 22.706 24.77zM67.087 144.67c1.032 17.546-7.225 31.995-17.546 31.995s-19.61-14.449-19.61-31.995c-1.032-17.545 7.225-31.995 17.546-31.995 10.32 0 19.61 14.45 19.61 31.995zM29.93 97.193c1.032 16.513-6.193 28.898-14.45 28.898C7.226 127.124 0 113.706 0 98.225c0-15.482 6.193-28.9 14.45-28.9 8.256-1.031 15.48 12.386 15.48 27.868z" fill="#969AA2"/></svg>
